svg/color/vrtx.svg

<svg width="336" height="336" viewBox="0 0 336 336" fill="none" xmlns="http://www.w3.org/2000/svg">
<rect width="336" height="336" fill="black"/>
<g clip-path="url(#clip0_3089_99789)">
<path d="M189.35 234.036C187.929 239.055 184.953 243.494 180.85 246.716C176.738 249.928 171.715 251.756 166.5 251.936H131.75L61 104.006H131.66L167 178.006C167 178.006 192.79 221.876 189.35 234.036Z" fill="#CDADEF"/>
<path d="M189.35 234.036C192.79 221.876 167.01 178.036 167.01 178.036H205.22L189.35 234.036Z" fill="url(#paint0_linear_3089_99789)"/>
<path d="M205.221 178.036H274.221V104.036H246.661C241.425 104.039 236.327 105.706 232.101 108.796C227.874 111.892 224.743 116.252 223.161 121.246L205.221 178.036Z" fill="#CDADEF"/>
</g>
<defs>
<linearGradient id="paint0_linear_3089_99789" x1="187.23" y1="174.116" x2="170.73" y2="232.616" gradientUnits="userSpaceOnUse">
<stop stop-color="#CDADEF"/>
<stop offset="1" stop-color="#8458B3"/>
</linearGradient>
<clipPath id="clip0_3089_99789">
<rect width="213.22" height="147.93" fill="white" transform="translate(61 104.006)"/>
</clipPath>
</defs>
</svg>

<svg xmlns="http://www.w3.org/2000/svg" width="336" height="336" fill="none" viewBox="0 0 336 336"><path fill="#000" d="M0 0h336v336H0z"/><g clip-path="url(#vrtx_svg-a)"><path fill="#CDADEF" d="M189.35 234.036a24.67 24.67 0 0 1-8.5 12.68 24.7 24.7 0 0 1-14.35 5.22h-34.75L61 104.006h70.66l35.34 74s25.79 43.87 22.35 56.03"/><path fill="url(#vrtx_svg-b)" d="M189.35 234.036c3.44-12.16-22.34-56-22.34-56h38.21z"/><path fill="#CDADEF" d="M205.221 178.036h69v-74h-27.56a24.7 24.7 0 0 0-14.56 4.76 24.67 24.67 0 0 0-8.94 12.45z"/></g><defs><linearGradient id="vrtx_svg-b" x1="187.23" x2="170.73" y1="174.116" y2="232.616" gradientUnits="userSpaceOnUse"><stop stop-color="#CDADEF"/><stop offset="1" stop-color="#8458B3"/></linearGradient><clipPath id="vrtx_svg-a"><path fill="#fff" d="M61 104.006h213.22v147.93H61z"/></clipPath></defs></svg>
